static/img/kroki/d039cccf6affe6e7f98ee3c8e9ee9629.svg

<?xml version="1.0" encoding="us-ascii" standalone="no"?><svg xmlns="http://www.w3.org/2000/svg" xmlns:xlink="http://www.w3.org/1999/xlink" contentStyleType="text/css" height="252px" preserveAspectRatio="none" style="width:513px;height:252px;" version="1.1" viewBox="0 0 513 252" width="513px" zoomAndPan="magnify"><defs/><g><!--class azure_sql_server_managed_instance--><g id="elem_azure_sql_server_managed_instance"><rect codeLine="23" fill="#3D176E" height="39.7891" id="azure_sql_server_managed_instance" rx="2.5" ry="2.5" style="stroke:#000D19;stroke-width:0.5;" width="347" x="83" y="7"/><ellipse cx="98" cy="26.8945" fill="#ADD1B2" rx="11" ry="11" style="stroke:#181818;stroke-width:1.0;"/><path d="M100.9688,32.5352 Q100.3906,32.832 99.75,32.9727 Q99.1094,33.1289 98.4063,33.1289 Q95.9063,33.1289 94.5781,31.4883 Q93.2656,29.832 93.2656,26.707 Q93.2656,23.582 94.5781,21.9258 Q95.9063,20.2695 98.4063,20.2695 Q99.1094,20.2695 99.75,20.4258 Q100.4063,20.582 100.9688,20.8789 L100.9688,23.5977 Q100.3438,23.0195 99.75,22.7539 Q99.1563,22.4727 98.5313,22.4727 Q97.1875,22.4727 96.5,23.5508 Q95.8125,24.6133 95.8125,26.707 Q95.8125,28.8008 96.5,29.8789 Q97.1875,30.9414 98.5313,30.9414 Q99.1563,30.9414 99.75,30.6758 Q100.3438,30.3945 100.9688,29.8164 L100.9688,32.5352 Z " fill="#000000"/><text fill="#D9B8FF" font-family="Helvetica" font-size="17" lengthAdjust="spacing" textLength="305" x="117" y="32.7798">azure_sql_server_managed_instance</text></g><!--class azure_sql_server_managed_instance_ad_administrator--><g id="elem_azure_sql_server_managed_instance_ad_administrator"><rect codeLine="26" fill="#3D176E" height="39.7891" id="azure_sql_server_managed_instance_ad_administrator" rx="2.5" ry="2.5" style="stroke:#000D19;stroke-width:0.5;" width="499" x="7" y="106.79"/><ellipse cx="22" cy="126.6845" fill="#ADD1B2" rx="11" ry="11" style="stroke:#181818;stroke-width:1.0;"/><path d="M24.9688,132.3252 Q24.3906,132.622 23.75,132.7627 Q23.1094,132.9189 22.4063,132.9189 Q19.9063,132.9189 18.5781,131.2783 Q17.2656,129.622 17.2656,126.497 Q17.2656,123.372 18.5781,121.7158 Q19.9063,120.0595 22.4063,120.0595 Q23.1094,120.0595 23.75,120.2158 Q24.4063,120.372 24.9688,120.6689 L24.9688,123.3877 Q24.3438,122.8095 23.75,122.5439 Q23.1563,122.2627 22.5313,122.2627 Q21.1875,122.2627 20.5,123.3408 Q19.8125,124.4033 19.8125,126.497 Q19.8125,128.5908 20.5,129.6689 Q21.1875,130.7314 22.5313,130.7314 Q23.1563,130.7314 23.75,130.4658 Q24.3438,130.1845 24.9688,129.6064 L24.9688,132.3252 Z " fill="#000000"/><text fill="#D9B8FF" font-family="Helvetica" font-size="17" lengthAdjust="spacing" textLength="457" x="41" y="132.5698">azure_sql_server_managed_instance_ad_administrator</text></g><!--class microsoft_resource--><g id="elem_microsoft_resource"><rect codeLine="29" fill="#3D176E" height="39.7891" id="microsoft_resource" rx="2.5" ry="2.5" style="stroke:#000D19;stroke-width:0.5;" width="200" x="156.5" y="206.58"/><ellipse cx="171.5" cy="226.4745" fill="#ADD1B2" rx="11" ry="11" style="stroke:#181818;stroke-width:1.0;"/><path d="M174.4688,232.1152 Q173.8906,232.412 173.25,232.5527 Q172.6094,232.7089 171.9063,232.7089 Q169.4063,232.7089 168.0781,231.0683 Q166.7656,229.412 166.7656,226.287 Q166.7656,223.162 168.0781,221.5058 Q169.4063,219.8495 171.9063,219.8495 Q172.6094,219.8495 173.25,220.0058 Q173.9063,220.162 174.4688,220.4589 L174.4688,223.1777 Q173.8438,222.5995 173.25,222.3339 Q172.6563,222.0527 172.0313,222.0527 Q170.6875,222.0527 170,223.1308 Q169.3125,224.1933 169.3125,226.287 Q169.3125,228.3808 170,229.4589 Q170.6875,230.5214 172.0313,230.5214 Q172.6563,230.5214 173.25,230.2558 Q173.8438,229.9745 174.4688,229.3964 L174.4688,232.1152 Z " fill="#000000"/><text fill="#D9B8FF" font-family="Helvetica" font-size="17" lengthAdjust="spacing" textLength="158" x="190.5" y="232.3598">microsoft_resource</text></g><!--link azure_sql_server_managed_instance to azure_sql_server_managed_instance_ad_administrator--><g id="link_azure_sql_server_managed_instance_azure_sql_server_managed_instance_ad_administrator"><path codeLine="32" d="M256.5,47.22 C256.5,64.36 256.5,83.27 256.5,100.41 " fill="none" id="azure_sql_server_managed_instance-to-azure_sql_server_managed_instance_ad_administrator" style="stroke:#1A83AF;stroke-width:2.0;"/><polygon fill="#1A83AF" points="256.5,106.41,260.5,97.41,256.5,101.41,252.5,97.41,256.5,106.41" style="stroke:#1A83AF;stroke-width:2.0;"/></g><!--link azure_sql_server_managed_instance_ad_administrator to microsoft_resource--><g id="link_azure_sql_server_managed_instance_ad_administrator_microsoft_resource"><path codeLine="33" d="M256.5,147.01 C256.5,164.15 256.5,183.06 256.5,200.2 " fill="none" id="azure_sql_server_managed_instance_ad_administrator-to-microsoft_resource" style="stroke:#1A83AF;stroke-width:2.0;"/><polygon fill="#1A83AF" points="256.5,206.2,260.5,197.2,256.5,201.2,252.5,197.2,256.5,206.2" style="stroke:#1A83AF;stroke-width:2.0;"/></g><!--SRC=[dP9DQm8n48Rl-oi2dWMtqggNmdP1sekKsbifoxYPQ72Js9ciegN_lMkj9UxwKOISCa_cVMR8J4iKQ1P-BGoQ2H97FDTs0GH694HkbRh2aMWf1QhRgnU7plgBm0WCYaSibkXr3dNYTQRpkKLcSHEK7Y2VJycLLkxQUmBBLGcj3wYq0ER4UzAJqcCW8mUJlb9rijwqrPLnxmuRc2E9z8jqEXqP3-h8nQYpS_yHOxr14OTB6pcF3Sr6n0zrrd9B19ADGVVrauxF8AMsKt4RtBtidCWY7ToFPo3TQaihA3YCOO-4pgyNc3Qcma5VgjvH-EaK7ENRrGdOb8GPVnGP8osHCWCMfYWpRTc3pL5yHj7NV-4CP7MCjfghR-QhkE2rqJavTifdXEnAslU-hD1-QyL9lviCtzltLqX4LtWVH3RDesy0]--></g></svg>

<svg xmlns="http://www.w3.org/2000/svg" width="513" height="252" viewBox="0 0 513 252"><rect width="347" height="39.789" x="83" y="7" fill="#3D176E" rx="2.5" ry="2.5" style="stroke:#000d19;stroke-width:.5"/><circle cx="98" cy="26.895" r="11" fill="#ADD1B2" style="stroke:#181818;stroke-width:1"/><path d="M100.969 32.535q-.578.297-1.219.438-.64.156-1.344.156-2.5 0-3.828-1.64-1.312-1.657-1.312-4.782t1.312-4.781q1.328-1.656 3.828-1.656.703 0 1.344.156.656.156 1.219.453v2.719q-.625-.578-1.219-.844-.594-.281-1.219-.281-1.344 0-2.031 1.078-.687 1.062-.687 3.156t.687 3.172q.688 1.062 2.031 1.062.625 0 1.219-.265.594-.281 1.219-.86z"/><text x="117" y="32.78" fill="#D9B8FF" font-family="Helvetica" font-size="17" textLength="305">azure_sql_server_managed_instance</text><rect width="499" height="39.789" x="7" y="106.79" fill="#3D176E" rx="2.5" ry="2.5" style="stroke:#000d19;stroke-width:.5"/><circle cx="22" cy="126.684" r="11" fill="#ADD1B2" style="stroke:#181818;stroke-width:1"/><path d="M24.969 132.325q-.578.297-1.219.438-.64.156-1.344.156-2.5 0-3.828-1.64-1.312-1.657-1.312-4.782t1.312-4.781q1.328-1.656 3.828-1.656.703 0 1.344.156.656.156 1.219.453v2.719q-.625-.579-1.219-.844-.594-.281-1.219-.281-1.343 0-2.031 1.078-.687 1.062-.687 3.156t.687 3.172q.688 1.062 2.031 1.062.625 0 1.219-.265.594-.281 1.219-.86z"/><text x="41" y="132.57" fill="#D9B8FF" font-family="Helvetica" font-size="17" textLength="457">azure_sql_server_managed_instance_ad_administrator</text><rect width="200" height="39.789" x="156.5" y="206.58" fill="#3D176E" rx="2.5" ry="2.5" style="stroke:#000d19;stroke-width:.5"/><circle cx="171.5" cy="226.475" r="11" fill="#ADD1B2" style="stroke:#181818;stroke-width:1"/><path d="M174.469 232.115q-.578.297-1.219.438-.64.156-1.344.156-2.5 0-3.828-1.64-1.312-1.657-1.312-4.782t1.312-4.781q1.328-1.656 3.828-1.656.703 0 1.344.156.656.156 1.219.453v2.719q-.625-.578-1.219-.844-.594-.281-1.219-.281-1.344 0-2.031 1.078-.687 1.062-.687 3.156t.687 3.172q.688 1.062 2.031 1.062.625 0 1.219-.265.594-.281 1.219-.86z"/><text x="190.5" y="232.36" fill="#D9B8FF" font-family="Helvetica" font-size="17" textLength="158">microsoft_resource</text><path fill="none" d="M256.5 47.22v53.19" style="stroke:#1a83af;stroke-width:2"/><path fill="#1A83AF" d="m256.5 106.41 4-9-4 4-4-4z" style="stroke:#1a83af;stroke-width:2"/><path fill="none" d="M256.5 147.01v53.19" style="stroke:#1a83af;stroke-width:2"/><path fill="#1A83AF" d="m256.5 206.2 4-9-4 4-4-4z" style="stroke:#1a83af;stroke-width:2"/></svg>
